X: 41316
T: Tuolpagorni
R: three-two
M: 3/2
K: Dmajor
|:A B/A/ F D D3/2 F/ A B/A/ G E E3/2 c/|d d c/B/c/e/ A G/F/ G B B/A/G/F/ E3/2 F/|
A B/A/ F D D3/2 F/ A B/A/ G E E3/2 A/|1 c d/c/ B A2 G/F/ E D/C/ D2 D/E/F/G/:|2 c d/c/ B A2 G/F/ E D/C/ D2 D/E/F/A/||
M:4/4
|:d e/d/ c d2 F G A|B =c/B/ A B2 G G F|E3/2 F/ G/F/G/B/ B/A/G/F/ G d|M:2/4
d/c/e/c/ A B/c/|
M:4/4
d e/d/ c d2 F G A|B =c/B/ A B2 G G F|M:3/2
[1E d/c/ B A2 G/F/ E D/C/ D2 D/E/F/A/:|2 E d/c/ B A2 G/F/ E D/C/ D2 z2||

